!!!SOCIAL_FUNCTION:	songs in honor of an individual
!!!PDT:	1918

Specific Region: Dakotas, Minnesota, Montana, Nebraska
!!!REG: Dakotas and Montana
!!!LING_GROUP: Siouan
!!!LANG: Tone
!!!OTL@ENG: I Expect to Give Something
!!!ONM: No. 221
**kern
*Imale
*clefF4
*k[b-e-]
*M3/4
*MM84
16G
=1
8g
8g
8g
[8g
8.g]
16d
=2
16g
8.d
8d
8d
8.d
16B-
=3
16d
8.B-
8B-
8G
8G
8G
=4||
*M2/4
[2G
=5
4G]
16G
8.G
=6
8c
8c
4c
=7
16f
8.e-
8e-
8c
=8
8B-
8B-
16G
8.G
=9||
*M3/4
16B-
8.B-
16B-
8.G
8G
8G
=10||
*M2/4
2G
=11||
*M3/4
2G
16G
8.G
=12||
*M2/4
8g
8g
(8.g
16d)
=13||
*M3/4
16g
8.d
8c
8c
8c
(16c
16B-)
=14
16d
8.B-
8B-
8G
8G
8G
=15||
*M2/4
[2G
=16
4G]
16G
8.G
=17
8c
8c
4c
=18
16f
8.e-
8e-
8c
=19
8B-
8B-
16G
8.G
=20||
*M3/4
8B-
8B-
16B-
8.G
8G
8G
=21||
*M2/4
2G
=22
2G
==
*-
!!!CNT: Native American -- Sioux
!!!MRD: 1911/07//-1914///
!!!OCL: Frances Densmore
!!!YOR1: Teton Sioux Music, Bulletin 61,
!!!YOR2: Bureau of American Ethnology, Smithsonian Institution
!!!PPR: Government Printing Office
!!!PPP: Washington, D.C.
!!!PDT: 1918///
!!!ENC: Craig Stuart Sapp
!!!END: 2002/03/25/
!!!EEV: 2002/03/31/
!!!AGN: Song in Honor of an Individual
!!!MPN@@SIO: Toke'ya-wicha'o
!!!MPN@ENG: Shoots First
!!!TXO: Teton Sioux
!!!MLC: Standing Rock Reservation, South Dakota, United States of America
!!!ARL: 45.9/-100.7#
!!!catalog: Catalogue No. 641
!!!PPG: 499
!!!EFL: 226/245
!!!VTS: 3820872178
